img/pick-your-scooter.svg

<svg width="96" height="96" viewBox="0 0 96 96" fill="none" xmlns="http://www.w3.org/2000/svg">
<g id="Group 9">
<circle id="Oval Copy 3" cx="48" cy="48" r="48" fill="#FCB72B"/>
<g id="001-scooter">
<path id="Path" d="M45.0698 62.301C44.8521 62.301 44.6389 62.3895 44.4852 62.5433C44.3314 62.697 44.2429 62.9105 44.2429 63.1279C44.2429 63.3453 44.3314 63.5588 44.4852 63.7125C44.6389 63.8663 44.8521 63.9548 45.0698 63.9548C45.2872 63.9548 45.5003 63.8663 45.6544 63.7125C45.8082 63.5588 45.8967 63.3462 45.8967 63.1279C45.8967 62.9105 45.8082 62.697 45.6544 62.5433C45.5003 62.3895 45.2872 62.301 45.0698 62.301Z" fill="black"/>
<path id="Shape" fill-rule="evenodd" clip-rule="evenodd" d="M61.5391 48.4188L59.6121 39.7131C60.1321 39.6427 60.5908 39.3781 60.9134 38.9951C61.2943 39.2331 61.7435 39.3714 62.2248 39.3714H63.8786C64.3353 39.3714 64.7054 39.0012 64.7054 38.5445V35.237C64.7054 34.7803 64.3353 34.4101 63.8786 34.4101H62.2248C61.7293 34.4101 61.2674 34.5568 60.8795 34.8084C60.501 34.3804 59.9483 34.1097 59.3333 34.1097H54.4522C53.5753 34.1097 52.8246 34.6598 52.5258 35.4327H50.5659C49.3805 35.4327 48.416 36.3972 48.416 37.5826C48.416 38.768 49.3805 39.7325 50.5659 39.7325H54.822V41.3988C54.822 41.8555 55.1922 42.2257 55.6489 42.2257C56.1056 42.2257 56.4758 41.8555 56.4758 41.3988V39.7325H57.9228L59.9984 49.1107L56.0701 56.1075C55.6408 56.8691 54.8314 57.3423 53.957 57.3423H44.1505C43.74 53.8995 40.8046 51.2208 37.2532 51.2208C35.6818 51.2208 34.1993 51.7328 32.9658 52.7011L32.9609 52.705C31.4922 53.8601 30.5691 55.5177 30.354 57.3423H28.6557C28.7636 51.3978 33.6328 46.5955 39.6021 46.5955H45.4677C45.9306 46.5955 46.3075 46.9725 46.3075 47.4356V54.8617C46.3075 55.3184 46.6776 55.6885 47.1344 55.6885H51.5342C53.3291 55.6885 54.9832 54.7124 55.8508 53.1417C56.2523 52.415 56.4651 51.592 56.4658 50.7622L56.47 48.0151C56.4706 47.5584 56.1008 47.1876 55.6441 47.1869H55.6431C55.187 47.1869 54.8169 47.5564 54.8162 48.0125L54.812 50.7603C54.8117 51.3119 54.6702 51.8591 54.4034 52.342C53.8265 53.3859 52.7271 54.0345 51.5342 54.0345H47.9612V47.4353C47.9612 47.0119 47.8547 46.6126 47.6676 46.2628C48.4105 45.8336 48.9118 45.0312 48.9118 44.1136C48.9118 42.7457 47.7988 41.633 46.4312 41.633H43.4131C43.1231 41.633 42.845 41.6834 42.5862 41.7751V34.5219C42.5862 33.154 41.4732 32.0413 40.1056 32.0413H34.7713C30.9044 32.0413 27.6886 34.8804 27.0975 38.5832C27.0727 38.6621 27.0591 38.7457 27.0591 38.8326C27.0591 38.8352 27.0593 38.8378 27.0594 38.8403C27.0596 38.8427 27.0598 38.8451 27.0598 38.8475C27.0203 39.164 27 39.486 27 39.8126V44.1139C27 45.3559 27.9176 46.3875 29.1105 46.5668L30.9415 48.3978C28.5155 50.6963 27 53.9463 27 57.5442V58.1692C27 58.6259 27.3702 58.996 27.8269 58.996H32.4738C32.4632 59.0493 32.4574 59.1049 32.4574 59.1614C32.4574 60.3614 32.9015 61.4592 33.6328 62.3009H27.8269C27.3702 62.3009 27 62.6714 27 63.1278C27 63.5845 27.3702 63.9547 27.8269 63.9547H37.1576L37.1852 63.9556C37.2079 63.9565 37.2305 63.9573 37.2532 63.9573C39.8976 63.9573 42.0491 61.8058 42.0491 59.1614C42.0491 59.1049 42.0433 59.0493 42.0326 58.996H53.957C55.259 58.996 56.4758 58.372 57.2384 57.3397H58.2855C58.0501 57.9127 57.9251 58.5303 57.9251 59.1614C57.9251 60.3614 58.3692 61.4592 59.1005 62.3009H48.3773C47.9205 62.3009 47.5504 62.6714 47.5504 63.1278C47.5504 63.5845 47.9205 63.9547 48.3773 63.9547H62.6253C62.6573 63.9557 62.689 63.9573 62.7209 63.9573C65.3653 63.9573 67.5168 61.8058 67.5168 59.1614C67.5168 58.5303 67.3918 57.9127 67.1563 57.3397H68.509C68.9658 57.3397 69.3359 56.9696 69.3359 56.5128C69.3359 52.1482 65.8653 48.5787 61.5391 48.4188ZM43.4131 43.2871H46.4312C46.887 43.2871 47.2581 43.6579 47.2581 44.1139C47.2581 44.5697 46.887 44.9408 46.4312 44.9408H43.4131C42.957 44.9408 42.5862 44.5697 42.5862 44.1139C42.5862 43.6579 42.957 43.2871 43.4131 43.2871ZM28.656 39.7109L28.656 39.7109C28.6549 39.7448 28.6537 39.7786 28.6537 39.8126V44.1139C28.6537 44.5697 29.0245 44.9408 29.4803 44.9408H29.4809H40.1053C40.5614 44.9408 40.9322 44.5697 40.9322 44.1139V34.5222C40.9322 34.0661 40.5614 33.6953 40.1053 33.6953H34.7713C32.0268 33.6953 29.699 35.5119 28.9264 38.0061H37.7057C38.1625 38.0061 38.5326 38.3762 38.5326 38.8329C38.5326 39.2896 38.1625 39.6598 37.7057 39.6598H28.6576L28.656 39.7109ZM31.4771 46.5946H33.3692C32.9719 46.8213 32.5885 47.0697 32.2196 47.3371L31.4771 46.5946ZM37.2852 62.3026C39.0029 62.2854 40.3953 60.8833 40.3953 59.1614C40.3953 59.1049 40.4012 59.0493 40.4118 58.996H34.0946C34.1053 59.0493 34.1111 59.1049 34.1111 59.1614C34.1111 60.862 35.4693 62.2502 37.1579 62.3009H37.2532C37.2593 62.3009 37.2654 62.3014 37.2715 62.3018C37.2761 62.3021 37.2806 62.3024 37.2852 62.3026ZM32.0226 57.3423C32.2274 56.0287 32.9173 54.842 33.9829 54.0051C33.9855 54.0035 33.9877 54.0012 33.9903 53.9996C34.9289 53.2638 36.0572 52.8746 37.2532 52.8746C39.8915 52.8746 42.0849 54.8142 42.4832 57.3423H32.0226ZM63.0517 36.0639H62.2248C61.7687 36.0639 61.3979 36.435 61.3979 36.8907C61.3979 37.3468 61.7687 37.7176 62.2248 37.7176H63.0517V36.0639ZM50.0698 37.5826C50.0698 37.309 50.2923 37.0865 50.5659 37.0865H52.3876V37.6679C52.3876 37.8087 52.4018 37.946 52.4286 38.0787H50.5659C50.2923 38.0787 50.0698 37.8562 50.0698 37.5826ZM54.4522 38.0787H55.6489H59.3333C59.5598 38.0787 59.7442 37.8946 59.7442 37.6679V36.1743C59.7442 35.9479 59.5598 35.7635 59.3333 35.7635H54.4522C54.2258 35.7635 54.0413 35.9479 54.0413 36.1743V37.6679C54.0413 37.8946 54.2258 38.0787 54.4522 38.0787ZM65.863 59.1614C65.863 60.8833 64.4706 62.2854 62.7529 62.3026C62.7507 62.3025 62.7484 62.3024 62.7462 62.3023C62.7438 62.3021 62.7415 62.302 62.7392 62.3018C62.7331 62.3014 62.727 62.301 62.7209 62.301H62.6256C60.937 62.2502 59.5788 60.862 59.5788 59.1614C59.5788 58.5044 59.7836 57.8694 60.1609 57.3397H65.281C65.6583 57.8694 65.863 58.5044 65.863 59.1614ZM61.3563 50.07L58.2032 55.686H67.6292C67.2274 52.5597 64.5762 50.1291 61.3563 50.07Z" fill="#495567"/>
<path id="Path_2" d="M55.6489 45.5334C56.1056 45.5334 56.4758 45.1632 56.4758 44.7065C56.4758 44.2498 56.1056 43.8796 55.6489 43.8796H55.646C55.1893 43.8796 54.8204 44.2498 54.8204 44.7065C54.8204 45.1632 55.1922 45.5334 55.6489 45.5334Z" fill="black"/>
</g>
</g>
</svg>

<svg xmlns="http://www.w3.org/2000/svg" width="96" height="96" fill="none"><circle cx="48" cy="48" r="48" fill="#FCB72B"/><path fill="#000" d="M45.07 62.301a.833.833 0 0 0-.585.242.833.833 0 0 0-.242.585c0 .217.088.43.242.584a.833.833 0 0 0 .585.243c.217 0 .43-.089.584-.242a.832.832 0 0 0 .243-.585.833.833 0 0 0-.243-.585.834.834 0 0 0-.584-.242Z"/><path fill="#495567" fill-rule="evenodd" d="m61.54 48.419-1.928-8.706c.52-.07.979-.335 1.301-.718.381.238.83.376 1.312.376h1.654c.456 0 .826-.37.826-.827v-3.307a.827.827 0 0 0-.826-.827h-1.654c-.496 0-.958.147-1.346.398a2.06 2.06 0 0 0-1.546-.698h-4.88c-.878 0-1.628.55-1.927 1.323h-1.96c-1.186 0-2.15.964-2.15 2.15 0 1.185.965 2.15 2.15 2.15h4.256v1.666a.827.827 0 1 0 1.654 0v-1.666h1.447l2.075 9.378-3.928 6.997a2.429 2.429 0 0 1-2.113 1.234h-9.806c-.411-3.442-3.346-6.121-6.898-6.121a6.88 6.88 0 0 0-4.287 1.48l-.005.004a6.906 6.906 0 0 0-2.607 4.637h-1.698c.108-5.944 4.977-10.746 10.946-10.746h5.866c.463 0 .84.377.84.84v7.426c0 .456.37.826.826.826h4.4a4.932 4.932 0 0 0 4.932-4.926l.004-2.747a.827.827 0 0 0-1.654-.003l-.004 2.748a3.279 3.279 0 0 1-3.278 3.274h-3.573v-6.599a2.48 2.48 0 0 0-.293-1.172 2.482 2.482 0 0 0 1.244-2.15 2.483 2.483 0 0 0-2.48-2.48h-3.019c-.29 0-.568.05-.827.142v-7.253a2.483 2.483 0 0 0-2.48-2.48H34.77c-3.867 0-7.082 2.838-7.674 6.541a.83.83 0 0 0-.038.25v.014a7.79 7.79 0 0 0-.059.966v4.3c0 1.243.918 2.275 2.11 2.454l1.832 1.83A12.568 12.568 0 0 0 27 57.545v.625c0 .457.37.827.827.827h4.647a.85.85 0 0 0-.017.165c0 1.2.444 2.298 1.176 3.14h-5.806a.827.827 0 0 0 0 1.654h9.358c.023.002.045.002.068.002a4.801 4.801 0 0 0 4.796-4.796.842.842 0 0 0-.016-.165h11.924a4.085 4.085 0 0 0 3.281-1.656h1.047A4.772 4.772 0 0 0 59.1 62.3H48.377a.827.827 0 0 0 0 1.654h14.248l.096.002a4.801 4.801 0 0 0 4.796-4.796 4.79 4.79 0 0 0-.36-1.821h1.352c.457 0 .827-.37.827-.827 0-4.365-3.47-7.934-7.797-8.094Zm-18.127-5.132h3.018a.828.828 0 0 1 0 1.654h-3.018a.828.828 0 0 1 0-1.654Zm-14.757-3.576-.002.102v4.3c0 .457.37.828.826.828h10.625a.828.828 0 0 0 .827-.827v-9.592a.828.828 0 0 0-.827-.827h-5.334a6.128 6.128 0 0 0-5.845 4.311h8.78a.827.827 0 1 1 0 1.654h-9.048l-.002.05Zm2.821 6.884h1.892c-.397.226-.78.475-1.15.742l-.742-.742Zm5.808 15.708a3.145 3.145 0 0 0 3.11-3.142.85.85 0 0 1 .017-.165h-6.317c.01.053.016.109.016.165 0 1.701 1.358 3.09 3.047 3.14h.114l.013.002Zm-5.262-4.96a5.26 5.26 0 0 1 1.96-3.338L33.99 54a5.24 5.24 0 0 1 3.263-1.125 5.303 5.303 0 0 1 5.23 4.467h-10.46Zm31.029-21.28h-.827a.828.828 0 0 0 0 1.655h.827v-1.654Zm-12.982 1.52c0-.274.222-.496.496-.496h1.822v.58c0 .142.014.279.04.412h-1.862a.497.497 0 0 1-.496-.496Zm4.382.496h4.881c.227 0 .411-.184.411-.411v-1.494a.411.411 0 0 0-.41-.41h-4.882a.411.411 0 0 0-.41.41v1.494c0 .227.184.41.41.41ZM65.863 59.16a3.145 3.145 0 0 1-3.11 3.142h-.007l-.007-.001a.28.28 0 0 0-.018-.001h-.095a3.145 3.145 0 0 1-3.047-3.14c0-.657.205-1.292.582-1.821h5.12c.377.53.582 1.164.582 1.821Zm-4.507-9.091-3.153 5.616h9.426a6.454 6.454 0 0 0-6.273-5.616Z" clip-rule="evenodd"/><path fill="#000" d="M55.649 45.533a.827.827 0 1 0 0-1.653h-.003a.826.826 0 1 0 .003 1.653Z"/></svg>
